X:83
T:Two to One. THO5.083
M:C|
L:1/8
B:Thompson's Complete Collection of 200 Favourite Dances Vol.5
F:https://www.libraryofdance.org/manuals/1780c-Thompson-Compleat-5.pdf
Z:vmp. Peter Dunk 2024
Q:1/4=150
K:D
a2 fa g2 eg|gfed dcBA|Bdce dfeg|fbge dcBA|
a2 fa g2 eg|gfed dcBA|Bdce dfeg|fbac d2-d2:|
|:A2A2 BAGF|FA^GB BA^GA|=gaba gfed|cdef dcBA|
A2A2 BAGF|FA^GB BA^GA|=gaba gfed|fedc d2-d2:|
W:
W:Cast off two Couples and up again ./.
W:Cross over two Couples, lead up to the top and cast off ./:
W:hands four across with the 3rd Couple and back again :/.
W:hands round four at top, Right and Left :/:

